!!!OTL: WIR STUDENTEN LEBEN TAEGLICH MUNTER
!!!ARE: Europa, Mitteleuropa, Deutschland
!!!SCT: F0538
!!!YEM: Copyright 1995, estate of Helmut Schaffrath.
**kern
*ICvox
*Ivox
*M3/4
*k[f#]
*G:
=1
{8.g
16g
4g
4d
=2
8.b
16b
4b
4g}
=3
{8.b
16cc
4.dd
8ee
=4
8.dd
16cc
4cc
8b
8r}
=5
{8.g
16g
4g
4d
=6
8.b
16b
4b
4g}
=7
{8.b
16cc
4.dd
8ee
=8
8.dd
16cc
4cc
8b
8r}
=9
{8.dd
16dd
4dd
4g
=10
8.ee
16ee
4.ee
8r}
=11
{8.dd
16dd
4dd
8cc
8b
=12
8.b
16a
4.a
8r}
=13
{8.dd
16dd
4b
8dd
8ffn
=14
8.ee
16ee
2ee}
=15
{8.dd
16cc
4b
8cc
8f#
=16
8.a
16g
4.g
8r}
==
!!!AGN: Studenten -, Trink - Lied
!!!ONB: ESAC (Essen Associative Code) Database: FINK
!!!AMT: simple triple
!!!AIN: vox
!!!EED: Helmut Schaffrath
!!!EEV: 1.0
*-
